X:272
T:La Gavre
S:Colin Hume's website,  colinhume.com  - chords can also be printed below the stave.
Q:3/8=120
M:6/8
L:1/8
C:Pierre Trappeniers, c. 1777
K:D
P:A
|: d2e | "D"fgf "A7"edc | "D"d2A d2e | "D"fgf "A7"edc | "D"d2z :|
P:B
|: "D"dcd | "G"B3 "Em"e2d | "A7"cBA "D"{e}dcd | "G"Bcd "A7"edc | "D"d3 :|
P:C
|: "D"a2f | "D"a2f "A7"efg | "D"f2d a2f | "D"a2f "A7"gec | "D"d2z :|
P:D
|: "G"B2d | "D"A2d "A7"efg | "D"fed "G"B2d | "D"A2d "A7"{f}edc | "D"d2z :|

